Icons/com_evernote_skitch_app_SkitchHomeBaseActivity.svg

<svg viewBox="0 0 48 48" xmlns:xlink="http://www.w3.org/1999/xlink">
 <defs>
  <linearGradient id="0">
   <stop stop-opacity="0"/>
   <stop offset="1"/>
  </linearGradient>
  <linearGradient xlink:href="#0" id="1" gradientUnits="userSpaceOnUse" gradientTransform="translate(4e-7,-48)" y1="47" x2="0" y2="1"/>
  <clipPath id="2">
   <g transform="translate(0,-1004.3622)">
    <rect rx="4" y="1005.36" x="1" height="46" width="46" fill="#1890d0"/>
   </g>
  </clipPath>
  <clipPath id="3">
   <g transform="translate(0,-1004.3622)">
    <rect rx="4" y="1005.36" x="1" height="46" width="46" fill="#1890d0"/>
   </g>
  </clipPath>
 </defs>
 <g>
  <g transform="translate(0,-1004.3622)">
   <path d="m 5,1006.3622 c -2.216,0 -4,1.784 -4,4 l 0,37.25 c 0,2.216 1.784,4 4,4 l 38,0 c 2.216,0 4,-1.784 4,-4 l 0,-37.25 c 0,-2.216 -1.784,-4 -4,-4 l -38,0 z m -4,41.5 0,0.5 c 0,2.216 1.784,4 4,4 l 38,0 c 2.216,0 4,-1.784 4,-4 l 0,-0.5 c 0,2.216 -1.784,4 -4,4 l -38,0 c -2.216,0 -4,-1.784 -4,-4 z" opacity="0.02"/>
   <path d="m 1,1047.6122 0,0.25 c 0,2.216 1.784,4 4,4 l 38,0 c 2.216,0 4,-1.784 4,-4 l 0,-0.25 c 0,2.216 -1.784,4 -4,4 l -38,0 c -2.216,0 -4,-1.784 -4,-4 z" opacity="0.05"/>
   <rect width="46" height="46" x="1" y="1005.61" rx="4" opacity="0.1"/>
  </g>
 </g>
 <g>
  <g transform="translate(0,-1004.3622)">
   <rect rx="4" y="1005.36" x="1" height="46" width="46" fill="#e35d89"/>
  </g>
 </g>
 <g>
  <rect transform="scale(1,-1)" width="46" height="46" x="1" y="-46.998" rx="4" opacity="0.1" fill="url(#1)"/>
 </g>
 <g>
  <g clip-path="url(#2)">
   <g opacity="0.1">
    <g>
     <path d="M 24.0625 16.21875 L 24.1875 16.71875 C 24.253906 16.996094 24.519531 17.789062 24.75 18.46875 C 24.980469 19.148438 25.121094 19.6875 25.09375 19.6875 C 27 23 26.363281 21.910156 26.96875 22.96875 C 29.886719 22.976562 33.007812 22.988281 36 23 L 36 22.96875 L 35.28125 22.5 C 34.875 22.222656 33.695312 21.226562 32.65625 20.28125 C 30.425781 18.257812 29.253906 17.332031 28.03125 16.6875 C 27.273438 16.285156 26.886719 16.21875 25.59375 16.21875 Z M 22.9375 25.0625 C 22.960938 25.039062 21.160156 28.035156 20.78125 29.03125 C 20.492188 29.785156 20.195312 30.714844 20.125 31.09375 L 20 31.78125 L 23.40625 31.78125 C 26.023438 31.78125 26.996094 31.710938 27.5 31.5 C 28.492188 31.085938 30.167969 29.832031 32.5 27.75 C 33.65625 26.71875 34.867188 25.679688 35.21875 25.46875 L 35.875 25.09375 L 33.40625 25.03125 C 32.726562 25.015625 31.402344 25.03125 29.8125 25.03125 C 27.371094 25.027344 25.132812 25.015625 22.9375 25.0625 Z M 22.9375 25.0625 "/>
     <path d="M 12.03125 16.21875 L 13.21875 17.8125 C 15.601562 20.988281 16.925781 22.292969 18.3125 22.78125 C 18.652344 22.902344 21.796875 22.957031 26.96875 22.96875 C 26.125 21.488281 25.074219 19.660156 24.125 18.53125 C 23.613281 17.894531 22.792969 17.128906 22.3125 16.8125 L 21.46875 16.21875 Z M 22.96875 25.03125 C 19.035156 25.074219 18.1875 25.15625 17.6875 25.40625 C 16.507812 26 15.242188 27.328125 13.03125 30.34375 L 12 31.78125 L 14.59375 31.78125 C 17.003906 31.78125 17.242188 31.753906 17.9375 31.34375 C 20.25 29.324219 21.25 27.621094 22.96875 25.03125 Z M 22.96875 25.03125 "/>
    </g>
   </g>
  </g>
 </g>
 <g>
  <g clip-path="url(#3)">
   <g transform="translate(0,-1)">
    <g>
     <path d="M 24.0625 16.21875 L 24.1875 16.71875 C 24.253906 16.996094 24.519531 17.789062 24.75 18.46875 C 24.980469 19.148438 25.121094 19.6875 25.09375 19.6875 C 27 23 26.363281 21.910156 26.96875 22.96875 C 29.886719 22.976562 33.007812 22.988281 36 23 L 36 22.96875 L 35.28125 22.5 C 34.875 22.222656 33.695312 21.226562 32.65625 20.28125 C 30.425781 18.257812 29.253906 17.332031 28.03125 16.6875 C 27.273438 16.285156 26.886719 16.21875 25.59375 16.21875 Z M 22.9375 25.0625 C 22.960938 25.039062 21.160156 28.035156 20.78125 29.03125 C 20.492188 29.785156 20.195312 30.714844 20.125 31.09375 L 20 31.78125 L 23.40625 31.78125 C 26.023438 31.78125 26.996094 31.710938 27.5 31.5 C 28.492188 31.085938 30.167969 29.832031 32.5 27.75 C 33.65625 26.71875 34.867188 25.679688 35.21875 25.46875 L 35.875 25.09375 L 33.40625 25.03125 C 32.726562 25.015625 31.402344 25.03125 29.8125 25.03125 C 27.371094 25.027344 25.132812 25.015625 22.9375 25.0625 Z M 22.9375 25.0625 " fill="#f4bfcf"/>
     <path d="M 12.03125 16.21875 L 13.21875 17.8125 C 15.601562 20.988281 16.925781 22.292969 18.3125 22.78125 C 18.652344 22.902344 21.796875 22.957031 26.96875 22.96875 C 26.125 21.488281 25.074219 19.660156 24.125 18.53125 C 23.613281 17.894531 22.792969 17.128906 22.3125 16.8125 L 21.46875 16.21875 Z M 22.96875 25.03125 C 19.035156 25.074219 18.1875 25.15625 17.6875 25.40625 C 16.507812 26 15.242188 27.328125 13.03125 30.34375 L 12 31.78125 L 14.59375 31.78125 C 17.003906 31.78125 17.242188 31.753906 17.9375 31.34375 C 20.25 29.324219 21.25 27.621094 22.96875 25.03125 Z M 22.96875 25.03125 " fill="#ffffff"/>
    </g>
   </g>
  </g>
 </g>
 <g>
  <g transform="translate(0,-1004.3622)">
   <path d="m 1,1043.3622 0,4 c 0,2.216 1.784,4 4,4 l 38,0 c 2.216,0 4,-1.784 4,-4 l 0,-4 c 0,2.216 -1.784,4 -4,4 l -38,0 c -2.216,0 -4,-1.784 -4,-4 z" opacity="0.1"/>
  </g>
 </g>
</svg>

<svg viewBox="0 0 48 48"><defs><linearGradient id="linearGradient3764" x1="1" x2="47" gradientUnits="userSpaceOnUse" gradientTransform="translate(-48.000001,0.00221467)"><stop stop-color="#e04c7d" stop-opacity="1"/><stop offset="1" stop-color="#e35d89" stop-opacity="1"/></linearGradient><clipPath id="clipPath-395696258"><g transform="translate(0,-1004.3622)"><rect rx="4" y="1005.36" x="1" height="46" width="46" fill="#1890d0"/></g></clipPath><clipPath id="clipPath-408839399"><g transform="translate(0,-1004.3622)"><rect rx="4" y="1005.36" x="1" height="46" width="46" fill="#1890d0"/></g></clipPath></defs><g><path d="m 1 43 l 0 0.25 c 0 2.216 1.784 4 4 4 l 38 0 c 2.216 0 4 -1.784 4 -4 l 0 -0.25 c 0 2.216 -1.784 4 -4 4 l -38 0 c -2.216 0 -4 -1.784 -4 -4 z m 0 0.5 l 0 0.5 c 0 2.216 1.784 4 4 4 l 38 0 c 2.216 0 4 -1.784 4 -4 l 0 -0.5 c 0 2.216 -1.784 4 -4 4 l -38 0 c -2.216 0 -4 -1.784 -4 -4 z" opacity="0.02"/><path d="m 1 43.25 l 0 0.25 c 0 2.216 1.784 4 4 4 l 38 0 c 2.216 0 4 -1.784 4 -4 l 0 -0.25 c 0 2.216 -1.784 4 -4 4 l -38 0 c -2.216 0 -4 -1.784 -4 -4 z" opacity="0.05"/><path d="m 1 43 l 0 0.25 c 0 2.216 1.784 4 4 4 l 38 0 c 2.216 0 4 -1.784 4 -4 l 0 -0.25 c 0 2.216 -1.784 4 -4 4 l -38 0 c -2.216 0 -4 -1.784 -4 -4 z" opacity="0.1"/></g><g><rect width="46" height="46" x="-47" y="1" rx="4" transform="matrix(0,-1,1,0,0,0)" fill="url(#linearGradient3764)" fill-opacity="1"/></g><g><g clip-path="url(#clipPath-395696258)"><g opacity="0.1"><!-- color: #e35d89 --><g><path d="m 24.06 16.219 l 0.125 0.5 c 0.066 0.277 0.332 1.07 0.563 1.75 c 0.23 0.68 0.371 1.219 0.344 1.219 c 1.906 3.313 1.27 2.223 1.875 3.281 c 2.918 0.008 6.04 0.02 9.03 0.031 l 0 -0.031 l -0.719 -0.469 c -0.406 -0.277 -1.586 -1.273 -2.625 -2.219 c -2.23 -2.023 -3.402 -2.949 -4.625 -3.594 c -0.758 -0.402 -1.145 -0.469 -2.438 -0.469 m -2.656 8.844 c 0.023 -0.023 -1.777 2.973 -2.156 3.969 c -0.289 0.754 -0.586 1.684 -0.656 2.063 l -0.125 0.688 l 3.406 0 c 2.617 0 3.59 -0.07 4.094 -0.281 c 0.992 -0.414 2.668 -1.668 5 -3.75 c 1.156 -1.031 2.367 -2.07 2.719 -2.281 l 0.656 -0.375 l -2.469 -0.063 c -0.68 -0.016 -2 0 -3.594 0 c -2.441 -0.004 -4.68 -0.016 -6.875 0.031 m 0 0" fill="#000"/><path d="m 12.03 16.219 l 1.188 1.594 c 2.383 3.176 3.707 4.48 5.094 4.969 c 0.34 0.121 3.484 0.176 8.656 0.188 c -0.844 -1.48 -1.895 -3.309 -2.844 -4.438 c -0.512 -0.637 -1.332 -1.402 -1.813 -1.719 l -0.844 -0.594 m 1.5 8.813 c -3.934 0.043 -4.781 0.125 -5.281 0.375 c -1.18 0.594 -2.445 1.922 -4.656 4.938 l -1.031 1.438 l 2.594 0 c 2.41 0 2.648 -0.027 3.344 -0.438 c 2.313 -2.02 3.313 -3.723 5.03 -6.313 m 0 0" fill="#000"/></g></g></g></g><g><g clip-path="url(#clipPath-408839399)"><g transform="translate(0,-1)"><!-- color: #e35d89 --><g><path d="m 24.06 16.219 l 0.125 0.5 c 0.066 0.277 0.332 1.07 0.563 1.75 c 0.23 0.68 0.371 1.219 0.344 1.219 c 1.906 3.313 1.27 2.223 1.875 3.281 c 2.918 0.008 6.04 0.02 9.03 0.031 l 0 -0.031 l -0.719 -0.469 c -0.406 -0.277 -1.586 -1.273 -2.625 -2.219 c -2.23 -2.023 -3.402 -2.949 -4.625 -3.594 c -0.758 -0.402 -1.145 -0.469 -2.438 -0.469 m -2.656 8.844 c 0.023 -0.023 -1.777 2.973 -2.156 3.969 c -0.289 0.754 -0.586 1.684 -0.656 2.063 l -0.125 0.688 l 3.406 0 c 2.617 0 3.59 -0.07 4.094 -0.281 c 0.992 -0.414 2.668 -1.668 5 -3.75 c 1.156 -1.031 2.367 -2.07 2.719 -2.281 l 0.656 -0.375 l -2.469 -0.063 c -0.68 -0.016 -2 0 -3.594 0 c -2.441 -0.004 -4.68 -0.016 -6.875 0.031 m 0 0" fill="#f4bfcf"/><path d="m 12.03 16.219 l 1.188 1.594 c 2.383 3.176 3.707 4.48 5.094 4.969 c 0.34 0.121 3.484 0.176 8.656 0.188 c -0.844 -1.48 -1.895 -3.309 -2.844 -4.438 c -0.512 -0.637 -1.332 -1.402 -1.813 -1.719 l -0.844 -0.594 m 1.5 8.813 c -3.934 0.043 -4.781 0.125 -5.281 0.375 c -1.18 0.594 -2.445 1.922 -4.656 4.938 l -1.031 1.438 l 2.594 0 c 2.41 0 2.648 -0.027 3.344 -0.438 c 2.313 -2.02 3.313 -3.723 5.03 -6.313 m 0 0" fill="#fff"/></g></g></g></g><g><g transform="translate(0,-1004.3622)"><path d="m 1 1043.36 0 4 c 0 2.216 1.784 4 4 4 l 38 0 c 2.216 0 4 -1.784 4 -4 l 0 -4 c 0 2.216 -1.784 4 -4 4 l -38 0 c -2.216 0 -4 -1.784 -4 -4 z" opacity="0.1"/></g></g></svg>
